X: 37059
T: Silver Spear, The
R: reel
M: 4/4
K: Amajor
CE E2 FECE|cABA FAED|CE E2 FECE|cABA F2 ED|
CE E2 FECE|cABA FABc|dFBd cEAc|BAFE FA A2:|
ce e2 df f2|ecAc BcAB|ce e2 df f2|ecAc B2 AB|
ce e2 df f2|ecAc BEAc|dFBd cEAc|BAFE FA A2:|

